X:1
T:Lucy Farr's Barndance  [A]
F:http://archive.folx.org/tune/barndance/lucy-farrs-barndance-1658
S:Handwritten MS from Paul Milde
M:4/4
L:1/8
K:A
|:\
"A"A2-A2 A2-A2 | ABcA F2 E2 | c2-c2 c2-c2 | cdec "E7"B3B |\
"A"cdec A2-A2 | ABcA F2E2 | EFAB ceec | "E7"B2 A2 "A"A4 :|
|:\
"A"cdec A2-A2 | ABcA F2 E2 | EFAB ceec | c2 B2 "E7"B3B |\
"A"cdec A2-A2 | ABcA F2 E2 | EFAB ceec | "E7"B2 A2 "A"A4 :|
